X:112
T:Hill of Lochiel
M:3/4
L:1/4
K:D Aeolian
"Dm"(D>E G)|"F"(A>G A)|"Am"(c>A G)|"C"(E>DC)|"Dm"(D>EG)|"Am"(A>^c d)|"Am"(A>GE)|"Dm"D3:|!
"Dm"(d A)(d/e/)|"Bb"(f>e)d|"Am"(c A G)|"C"(E>DC)|"Dm"(dA)(d/e/)|"Bb"(f>e)d|"Am"A>G E|"D"D3|!
"Dm"(d A)(d/e/)|"Bb"(f>e)d|"Am"(c A c)|"C"(E>DC)|"Dm"(D>EG)|"Am"(A>^cd)|"Am"(A>G)E|"D"D3|

